X:1
T:Church, CM
T:Church, CM
T:Joseph Perry Holbrook, 1868
T:Public Domain Courtesy of the Cyber Hymnal™
C:Joseph Perry Holbrook, 1868
Z:Public Domain
Z:Courtesy of the Cyber Hymnal™
%%score ( 1 2 ) ( 3 4 )
L:1/8
M:3/4
K:Ab
V:1 treble 
V:2 treble 
V:3 bass 
V:4 bass 
V:1
 [CE]2 | [CE]2 [Ec]2 [CA]2 | [DB]4 [DE]2 | [DB]2 [Ec]2 [DB]2 | [CA]4 [Ec]2 | [Ee]2 [Fc]2 [Fd]2 | %6
 [EB]2 [CA]2 [DB]2 | !fermata![Ec]4 [CE]2 | [DF]2 [Fd]2 [DFd]2 | [CE]2 [Ec]2 [CA]2 | %10
 [DG]2 [CA]2 [DB]2 | [Ec]4 [_Ge]2 | e2 d2 [FB]2 | (AE c2) [DB]2 | !fermata![CA]4 |] %15
V:2
 x2 | x6 | x6 | x6 | x6 | x6 | x6 | x6 | x6 | x6 | x6 | x6 | F4 x2 | E4 x2 | x4 |] %15
V:3
 [A,,A,]2 | [A,,A,]4 [A,,A,]2 | [E,G,]4 [E,G,]2 | (B,2 A,2) [E,G,]2 | [A,,A,]4 [A,,A,]2 | %5
 [C,A,]2 [F,=A,]2 [B,,B,]2 | (G,2 A,2) [E,G,]2 | !fermata![A,,A,]4 [A,,A,]2 | [D,A,]4 [D,A,]2 | %9
 [A,,A,]4 [A,,A,]2 | (B,2 A,2) [E,G,]2 | [A,,A,]4 [C,A,]2 | [D,A,]4 [D,D]2 | (C2 A,2) [E,G,]2 | %14
 !fermata![A,,A,]4 |] %15
V:4
 x2 | x6 | x6 | E,4 x2 | x6 | x6 | E,4 x2 | x6 | x6 | x6 | E,4 x2 | x6 | x6 | E,4 x2 | x4 |] %15

